app/img/sentinel_icon_2.svg

<svg width="33" height="33" viewBox="0 0 33 33" fill="none" xmlns="http://www.w3.org/2000/svg">
<path d="M10.5452 4.48802C11.6363 3.66165 12.9684 3.21594 14.3372 3.21922C14.8099 3.20862 15.2776 3.31743 15.6972 3.53557C16.1167 3.75372 16.4744 4.07415 16.7372 4.46722C17 4.07415 17.3577 3.75372 17.7772 3.53557C18.1967 3.31743 18.6645 3.20862 19.1372 3.21922C20.5059 3.21594 21.838 3.66165 22.9292 4.48802C23.7692 5.14082 24.4172 6.04482 24.646 7.13762C25.1708 7.17762 25.6508 7.39522 26.054 7.72322C26.6652 8.21922 27.11 8.96322 27.39 9.75042C27.8284 10.9744 27.9468 12.5344 27.4924 13.8624C27.6076 13.9168 27.7212 13.9808 27.8316 14.0544C28.2716 14.3472 28.606 14.7664 28.8524 15.2608C29.3372 16.2288 29.5372 17.5792 29.5372 19.2192C29.5372 21.0448 28.8412 22.2704 27.958 23.0272C27.4696 23.446 26.8932 23.7495 26.2716 23.9152C26.1116 24.808 25.6636 25.8416 24.9612 26.7184C24.0492 27.8624 22.6348 28.8192 20.7372 28.8192C19.2332 28.8192 18.0364 27.9872 17.2588 27.1712C17.0729 26.9764 16.8987 26.7707 16.7372 26.5552C16.5757 26.7707 16.4015 26.9764 16.2156 27.1712C15.438 27.9872 14.2428 28.8192 12.7372 28.8192C10.8396 28.8192 9.42678 27.8624 8.51318 26.7184C7.85679 25.9033 7.40722 24.9416 7.20278 23.9152C6.58115 23.7495 6.00478 23.446 5.51638 23.0272C4.63318 22.2704 3.93718 21.0432 3.93718 19.2192C3.93718 17.5792 4.13878 16.2272 4.62198 15.2608C4.86838 14.7664 5.20278 14.3488 5.64278 14.0528C5.75084 13.9813 5.86424 13.9182 5.98198 13.864C5.52758 12.5328 5.64598 10.9744 6.08438 9.75042C6.36438 8.96322 6.80918 8.21922 7.42038 7.72322C7.82358 7.39522 8.30358 7.17922 8.82838 7.13762C9.05878 6.04482 9.70678 5.14082 10.5468 4.48802H10.5452ZM15.9372 7.21922V7.20322L15.934 7.12322C15.9104 6.70611 15.8275 6.29449 15.6876 5.90082C15.588 5.60364 15.4184 5.33475 15.1932 5.11682C14.9569 4.91103 14.6502 4.80442 14.3372 4.81922C13.3243 4.81575 12.3379 5.14268 11.5276 5.75042C10.7852 6.32802 10.3372 7.11042 10.3372 8.01922C10.3371 8.14592 10.3069 8.27078 10.2491 8.38352C10.1913 8.49627 10.1076 8.59368 10.0048 8.66773C9.90198 8.74178 9.78306 8.79036 9.65782 8.80947C9.53257 8.82857 9.40458 8.81766 9.28438 8.77762C8.98358 8.67842 8.71478 8.73442 8.42838 8.96482C8.11478 9.22082 7.80918 9.67522 7.58998 10.288C7.14358 11.5392 7.18998 13.0544 7.80278 13.976C7.8903 14.1073 7.93706 14.2615 7.93718 14.4192H9.13718C10.092 14.4192 11.0076 14.7985 11.6828 15.4736C12.3579 16.1488 12.7372 17.0644 12.7372 18.0192V18.5552C13.2709 18.7439 13.7208 19.1153 14.0073 19.6036C14.2937 20.0919 14.3984 20.6658 14.3026 21.2238C14.2069 21.7818 13.917 22.288 13.4841 22.6529C13.0513 23.0178 12.5033 23.218 11.9372 23.218C11.371 23.218 10.8231 23.0178 10.3903 22.6529C9.9574 22.288 9.66748 21.7818 9.57174 21.2238C9.47601 20.6658 9.58061 20.0919 9.86707 19.6036C10.1535 19.1153 10.6034 18.7439 11.1372 18.5552V18.0192C11.1372 16.9152 10.2412 16.0192 9.13718 16.0192H6.33718C6.24153 16.0191 6.14669 16.0017 6.05718 15.968L6.05238 15.9776C5.73558 16.6096 5.53718 17.6592 5.53718 19.2192C5.53718 20.5936 6.04118 21.368 6.55798 21.8112C7.11318 22.288 7.72918 22.4192 7.93718 22.4192C8.14935 22.4192 8.35284 22.5035 8.50286 22.6535C8.65289 22.8036 8.73718 23.007 8.73718 23.2192C8.73718 23.808 9.05718 24.8368 9.76118 25.72C10.4476 26.576 11.4348 27.2192 12.7372 27.2192C13.6332 27.2192 14.4364 26.7184 15.0572 26.0672C15.3628 25.7472 15.6012 25.416 15.7564 25.144C15.827 25.0234 15.8875 24.8971 15.9372 24.7664V12.0192H14.2012C14.0125 12.553 13.6411 13.0029 13.1528 13.2893C12.6645 13.5758 12.0906 13.6804 11.5326 13.5847C10.9746 13.4889 10.4684 13.199 10.1035 12.7661C9.73858 12.3333 9.53844 11.7854 9.53844 11.2192C9.53844 10.6531 9.73858 10.1052 10.1035 9.6723C10.4684 9.23944 10.9746 8.94952 11.5326 8.85379C12.0906 8.75805 12.6645 8.86266 13.1528 9.14912C13.6411 9.43558 14.0125 9.88545 14.2012 10.4192H15.9372V7.21922ZM17.5372 23.2176V24.7648C17.5869 24.8955 17.6473 25.0218 17.718 25.1424C17.8748 25.4144 18.1116 25.7456 18.4156 26.0656C19.038 26.7168 19.8428 27.2176 20.7372 27.2176C22.0396 27.2176 23.0268 26.5744 23.7132 25.7184C24.4172 24.8352 24.7372 23.8064 24.7372 23.2176C24.7372 23.0054 24.8215 22.802 24.9715 22.6519C25.1215 22.5019 25.325 22.4176 25.5372 22.4176C25.7452 22.4176 26.3612 22.2864 26.9164 21.8096C27.4332 21.3664 27.9372 20.592 27.9372 19.2176C27.9372 17.6576 27.7372 16.6096 27.422 15.976C27.3165 15.7401 27.151 15.536 26.942 15.384C26.7618 15.2689 26.5508 15.2114 26.3372 15.2192C26.1925 15.2191 26.0505 15.1798 25.9264 15.1054C25.8022 15.0311 25.7006 14.9244 25.6323 14.7968C25.564 14.6692 25.5316 14.5255 25.5385 14.381C25.5454 14.2365 25.5914 14.0965 25.6716 13.976C26.286 13.0544 26.3308 11.5392 25.8844 10.288C25.6652 9.67522 25.3596 9.21922 25.046 8.96482C24.7596 8.73442 24.4908 8.67682 24.19 8.77762C24.0698 8.81766 23.9418 8.82857 23.8165 8.80947C23.6913 8.79036 23.5724 8.74178 23.4696 8.66773C23.3668 8.59368 23.283 8.49627 23.2252 8.38352C23.1675 8.27078 23.1373 8.14592 23.1372 8.01922C23.1372 7.11042 22.6892 6.32802 21.9452 5.75042C21.1353 5.14301 20.1495 4.8161 19.1372 4.81922C18.8242 4.80442 18.5175 4.91103 18.2812 5.11682C18.0552 5.3345 17.8851 5.60343 17.7852 5.90082C17.6329 6.31875 17.5491 6.75856 17.5372 7.20322V21.6192H18.7372C19.8412 21.6192 20.7372 20.7232 20.7372 19.6192V16.6832C20.2034 16.4945 19.7535 16.1232 19.4671 15.6348C19.1806 15.1465 19.076 14.5726 19.1717 14.0146C19.2675 13.4566 19.5574 12.9505 19.9902 12.5855C20.4231 12.2206 20.971 12.0205 21.5372 12.0205C22.1033 12.0205 22.6513 12.2206 23.0841 12.5855C23.517 12.9505 23.8069 13.4566 23.9026 14.0146C23.9984 14.5726 23.8937 15.1465 23.6073 15.6348C23.3208 16.1232 22.8709 16.4945 22.3372 16.6832V19.6192C22.3372 20.574 21.9579 21.4897 21.2828 22.1648C20.6076 22.8399 19.692 23.2192 18.7372 23.2192H17.5372V23.2176ZM11.1372 11.2192C11.1372 11.4314 11.2215 11.6349 11.3715 11.7849C11.5215 11.9349 11.725 12.0192 11.9372 12.0192C12.1494 12.0192 12.3528 11.9349 12.5029 11.7849C12.6529 11.6349 12.7372 11.4314 12.7372 11.2192C12.7372 11.007 12.6529 10.8036 12.5029 10.6535C12.3528 10.5035 12.1494 10.4192 11.9372 10.4192C11.725 10.4192 11.5215 10.5035 11.3715 10.6535C11.2215 10.8036 11.1372 11.007 11.1372 11.2192ZM21.5372 15.2192C21.7494 15.2192 21.9528 15.1349 22.1029 14.9849C22.2529 14.8349 22.3372 14.6314 22.3372 14.4192C22.3372 14.207 22.2529 14.0036 22.1029 13.8535C21.9528 13.7035 21.7494 13.6192 21.5372 13.6192C21.325 13.6192 21.1215 13.7035 20.9715 13.8535C20.8215 14.0036 20.7372 14.207 20.7372 14.4192C20.7372 14.6314 20.8215 14.8349 20.9715 14.9849C21.1215 15.1349 21.325 15.2192 21.5372 15.2192ZM11.9372 20.0192C11.725 20.0192 11.5215 20.1035 11.3715 20.2535C11.2215 20.4036 11.1372 20.607 11.1372 20.8192C11.1372 21.0314 11.2215 21.2349 11.3715 21.3849C11.5215 21.5349 11.725 21.6192 11.9372 21.6192C12.1494 21.6192 12.3528 21.5349 12.5029 21.3849C12.6529 21.2349 12.7372 21.0314 12.7372 20.8192C12.7372 20.607 12.6529 20.4036 12.5029 20.2535C12.3528 20.1035 12.1494 20.0192 11.9372 20.0192Z" fill="white"/>
</svg>

<svg width="33" height="33" fill="none" xmlns="http://www.w3.org/2000/svg"><path d="M10.545 4.488a6.256 6.256 0 013.792-1.269 2.812 2.812 0 012.4 1.248 2.811 2.811 0 012.4-1.248 6.256 6.256 0 013.792 1.269c.84.653 1.488 1.557 1.717 2.65.525.04 1.005.257 1.408.585.611.496 1.056 1.24 1.336 2.027.438 1.224.557 2.784.102 4.112.116.055.23.119.34.192.44.293.774.712 1.02 1.207.485.968.685 2.318.685 3.958 0 1.826-.696 3.051-1.579 3.808a4.287 4.287 0 01-1.686.888c-.16.893-.608 1.927-1.31 2.803-.913 1.144-2.327 2.101-4.225 2.101-1.504 0-2.7-.832-3.478-1.648-.186-.195-.36-.4-.522-.616a6.793 6.793 0 01-.521.616c-.778.816-1.973 1.648-3.479 1.648-1.897 0-3.31-.957-4.224-2.1a6.49 6.49 0 01-1.31-2.804 4.287 4.287 0 01-1.687-.888c-.883-.757-1.579-1.984-1.579-3.808 0-1.64.202-2.992.685-3.958.246-.495.58-.912 1.02-1.208.109-.072.222-.135.34-.189-.454-1.331-.336-2.89.102-4.114.28-.787.725-1.53 1.336-2.027a2.55 2.55 0 011.408-.585c.23-1.093.879-1.997 1.719-2.65h-.002zm5.392 2.731v-.016l-.003-.08a4.391 4.391 0 00-.246-1.222c-.1-.297-.27-.566-.495-.784a1.216 1.216 0 00-.856-.298 4.656 4.656 0 00-2.81.931c-.742.578-1.19 1.36-1.19 2.27a.8.8 0 01-1.053.758c-.3-.1-.57-.044-.856.187-.313.256-.619.71-.838 1.323-.446 1.251-.4 2.766.213 3.688a.8.8 0 01.134.443h1.2a3.6 3.6 0 013.6 3.6v.536a2.4 2.4 0 11-1.6 0v-.536a2 2 0 00-2-2h-2.8a.797.797 0 01-.28-.051l-.005.01c-.316.632-.515 1.681-.515 3.241 0 1.375.504 2.149 1.021 2.592.555.477 1.171.608 1.38.608a.8.8 0 01.8.8c0 .589.32 1.618 1.023 2.501.687.856 1.674 1.5 2.976 1.5.896 0 1.7-.502 2.32-1.153a4.9 4.9 0 00.7-.923c.07-.12.13-.247.18-.378V12.02h-1.736a2.4 2.4 0 110-1.6h1.736v-3.2zm1.6 15.999v1.547c.05.13.11.257.181.377.157.272.394.604.698.924.622.65 1.427 1.152 2.321 1.152 1.303 0 2.29-.644 2.976-1.5.704-.883 1.024-1.912 1.024-2.5a.8.8 0 01.8-.8c.208 0 .824-.132 1.38-.608.516-.444 1.02-1.218 1.02-2.592 0-1.56-.2-2.608-.515-3.242a1.478 1.478 0 00-.48-.592 1.052 1.052 0 00-.605-.165.8.8 0 01-.665-1.243c.614-.922.659-2.437.212-3.688-.219-.613-.524-1.069-.838-1.323-.286-.23-.555-.288-.856-.187a.8.8 0 01-1.053-.759c0-.909-.448-1.691-1.192-2.269a4.656 4.656 0 00-2.808-.93 1.216 1.216 0 00-.856.297 1.951 1.951 0 00-.496.784 4.126 4.126 0 00-.248 1.302V21.62h1.2a2 2 0 002-2v-2.936a2.4 2.4 0 111.6 0v2.936a3.6 3.6 0 01-3.6 3.6h-1.2v-.001zm-6.4-11.999a.8.8 0 101.6 0 .8.8 0 00-1.6 0zm10.4 4a.8.8 0 100-1.6.8.8 0 000 1.6zm-9.6 4.8a.8.8 0 100 1.6.8.8 0 000-1.6z" fill="#fff"/></svg>
